; LightBurn 1.7.03
; GRBL device profile, user origin
; Bounds: X143.09 Y137.42 to X258.2 Y259
G00 G17 G40 G21 G54
G90
G0 X0 Y0
G91
M4
; Cut @ 600 mm/min, 80% power
M8
G0 X35.113Y27.073
; Layer C23
G1 Y10.237S800F600
G1 X0.022Y0.147
G1 X0.063Y0.164
G1 X0.094Y0.177
G1 X0.118Y0.19
G1 X0.274Y0.406
G1 X0.27Y0.427
G1 X0.113Y0.217
G1 X0.088Y0.215
G1 X0.055Y0.212
G1 X0.012Y0.207
G1 X-0.037Y0.199
G1 X-0.095Y0.189
G1 X-0.162Y0.177
G1 X-0.236Y0.163
G1 X-0.189Y0.077
G1 X-0.249Y0.057
G1 X-0.302Y0.04
G1 X-0.346Y0.024
G1 X-0.793Y0.011
G1 X-0.873Y-0.023
G1 X-0.888Y-0.042
G1 X-0.838Y-0.042
G1 X-0.38Y-0.015
G1 X-0.343Y-0.009
G1 X-0.298
G1 X-0.245Y0.009
G1 X-0.176Y-0.412
G1 X-0.097Y-0.401
G1 X-0.016Y-0.382
G1 X0.068Y-0.355
G1 X0.154Y-0.319
G1 X0.242Y-0.276
G1 X0.156Y-0.119
G1 X0.178Y-0.106
G1 X0.202Y-0.09
G1 X0.226Y-0.074
G1 X-0.06Y-0.919
G1 X0.003Y-0.984
G1 X0.039Y-1.025
G1 X0.049Y-1.042
G1 X0.032Y-1.035
G1 X-0.011Y-1.006
G1 X-0.03Y-0.485
G1 X-0.05Y-0.468
G1 X-0.075Y-0.449
G1 X-0.101Y-0.427
G1 X-0.133Y-0.33
G1 X-0.187Y-0.314
G1 X-0.21Y-0.303
G1 X-0.203Y-0.301
G1 X-0.164Y-0.304
G1 X-0.094Y-0.316
G1 X-0.012Y-0.164
G1 X0.018Y-0.17
G1 X0.051Y-0.176
G1 X0.087Y-0.183
G1 X0.109Y-0.13
G1 X0.171Y-0.158
G1 X0.176Y-0.132
G1 X0.124Y-0.056
G1 X4.696
G1 X0.003Y-0.003
G0 X0.399Y0.003
G1 X2.85Y0.005
G1 X0.867Y-0.096
G1 X0.815Y-0.065
G1 X0.185Y0.02
G1 X0.176Y0.043
G1 X0.163Y0.071
G1 X0.151Y0.103
G1 X0.137Y0.138
G1 X0.121Y0.178
G1 X0.104Y0.223
G1 X0.085Y0.271
G1 X0.031Y0.137
G1 X0.035Y0.182
G1 X0.038Y0.222
G1 X0.04Y0.254
G1 X0.083Y0.578
G1 X0.08Y0.628
G1 X0.067Y0.623
G1 X0.048Y0.565
G1 X0.014Y0.243
G1 X0.006Y0.209
G1 X-0.003Y0.167
G1 X-0.013Y0.119
G1 X-0.045Y0.139
G1 X-0.075Y0.122
G1 X-0.102Y0.105
G1 X-0.124Y0.089
G1 X-0.304Y0.136
G1 X-0.355Y0.087
G1 X-0.377Y0.048
G1 X-0.372Y0.017
G1 X-0.339Y-0.004
G1 X-0.28Y-0.017
G1 X-0.281Y-1.174
G1 X-0.355Y-1.171
G1 X-0.233Y-0.56
G1 X-0.286Y-0.527
G1 X-0.35Y-0.485
G1 X-0.424Y-0.433
G1 X-1.78Y-1.19
G0 X12.287Y0.013
G1 X0.115Y0.227
G1 X0.079Y0.208
G1 X0.048Y0.189
G1 X0.019Y0.175
G1 X-0.035Y0.31
G1 X-0.112Y0.276
G1 X-0.348Y0.517
G1 X-0.343Y0.59
G1 X-0.059Y0.192
G1 X-0.051Y0.257
G1 X-0.042Y0.312
G1 X-0.035Y0.359
G1 X-0.045Y0.819
G1 X-0.014Y0.894
G1 X0.017Y0.895
G1 X0.047Y0.822
G1 X0.034Y0.36
G1 X0.042Y0.315
G1 X0.05Y0.259
G1 X0.056Y0.194
G1 X0.242Y0.491
G1 X0.25Y0.571
G1 X0.054Y0.284
G1 X-0.034Y0.268
G1 X-0.059Y0.123
G1 X-0.092Y0.115
G1 X-0.128Y0.104
G1 X-0.169Y0.092
G1 X-0.179Y0.054
G1 X-0.222Y0.026
G1 X-0.261
G1 X-0.293Y-0.017
G1 X-0.66Y-0.083
G1 X-0.72Y-0.117
G1 X-0.733Y-0.123
G1 X-0.698Y-0.096
G1 X-0.322Y-0.028
G1 X-0.296Y-0.011
G1 X-0.264Y0.012
G1 X-0.226Y0.037
G1 X-0.11Y-0.23
G1 X-0.077Y-0.263
G1 X-0.043Y-0.283
G1 X-0.006Y-0.292
G1 X0.033Y-0.287
G1 X0.075Y-0.268
G1 X0.118Y-0.239
G1 X0.163Y-0.194
G1 X0.177Y-0.101
G1 X0.185Y-0.064
G1 X0.085Y-0.044
G1 X0.075Y-0.064
G1 X0.059Y-0.095
G1 X0.041Y-0.135
G1 X0.026Y-0.176
G1 X0.019Y-0.222
G1 X0.014Y-0.263
G1 X0.008Y-0.296
G1 Y-0.664
G1 X-0.024Y-0.717
G1 X-0.043Y-0.715
G1 X-0.062Y-0.659
G1 X-0.038Y-0.293
G1 X-0.042Y-0.258
G1 X-0.046Y-0.218
G1 X-0.05Y-0.17
G1 X-0.131Y-0.269
G1 X-0.409Y-0.68
G1 X-0.191Y-0.373
G1 X-0.072Y-0.187
G1 X-0.051Y-0.182
G1 X-0.024Y-0.178
G1 X0.01Y-0.168
G1 X0.048Y-0.159
G1 X0.092Y-0.145
G1 X0.141Y-0.13
G1 X0.195Y-0.112
G1 X0.103Y-0.023
G1 X0.193Y-0.022
G1 X0.273Y-0.021
G1 X0.337Y-0.02
G1 X0.389Y-0.017
G1 X0.428Y-0.015
G1 X0.454Y-0.013
G1 X0.466Y-0.01
G1 X0.466Y-0.006
G1 X0.451Y-0.003
G1 X0.425
G1 X0.384Y0.005
G1 X0.331Y0.009
G1 X0.265Y0.014
G1 X0.185Y0.019
G1 X0.092Y0.024
G0 X1.847Y7.361
G1 X0.032Y-0.1
G1 X0.024Y-0.174
G1 X0.014Y-0.237
G1 X0.006Y-0.292
G1 X-0.009Y-0.703
G1 X-0.034Y-0.796
G1 X-0.053Y-0.81
G1 X-0.066Y-0.742
G1 X-0.036Y-0.32
G1 X-0.038Y-0.273
G1 X-0.038Y-0.215
G1 X-0.038Y-0.148
G1 X-0.126Y-0.277
G1 X-0.38Y-0.657
G1 X-0.17Y-0.35
G1 X-0.061Y-0.174
G1 X-0.039Y-0.17
G1 X-0.011Y-0.165
G1 X0.022Y-0.158
G1 X0.061Y-0.148
G1 X0.104Y-0.137
G1 X0.153Y-0.124
G1 X0.206Y-0.109
G1 X0.107Y-0.026
G1 X0.185Y-0.023
G1 X0.253Y-0.021
G1 X0.308Y-0.017
G1 X0.737Y-0.027
G1 X0.824Y-0.013
G1 X0.817
G1 X0.72Y0.014
G1 X0.295Y0.012
G1 X0.237Y0.017
G1 X0.166Y0.02
G1 X0.085Y0.024
G1 X0.118Y0.195
G1 X0.081Y0.191
G1 X0.047Y0.187
G1 X0.018Y0.184
G1 X-0.038Y0.361
G1 X-0.11Y0.355
G1 X-0.306Y0.708
G1 X-0.212Y0.73
G1 X-0.02Y0.279
G1 X-0.009Y0.345
G1 Y0.4
G1 X0.007Y0.446
G1 X0.057Y2.027
G1 X0.011Y0.517
G1 X0.005Y0.5
G1 Y0.474
G1 X-0.014Y0.436
G1 X-0.024Y0.388
G1 X-0.037Y0.331
G1 X-0.053Y0.263
G1 X-0.072Y0.184
G1 X-0.108Y0.161
G1 X-0.14Y0.12
G1 X-0.152Y0.051
G1 X-0.191Y0.031
G1 X-0.225Y0.014
G1 X-0.253
G1 X-0.571Y-0.035
G1 X-0.624Y-0.062
G1 X-0.636Y-0.066
G1 X-0.605Y-0.051
G1 X-0.279Y-0.012
G1 X-0.256
G1 X-0.228Y0.014
G1 X-0.195Y0.031
G1 X-0.108Y-0.244
G1 X-0.082Y-0.259
G1 X-0.051Y-0.267
G1 X-0.017Y-0.271
G1 X0.022Y-0.267
G1 X0.065Y-0.259
G1 X0.114Y-0.244
G1 X0.165Y-0.223
G1 X0.178Y-0.137
G1 X0.207Y-0.099
G1 X0.176Y-0.068
G1 X0.085Y-0.043
G1 X0.003Y0.003
G0 X-5.173Y7.255
G1 X-0.401Y-0.109
G1 X-0.347Y-0.174
G1 X-0.291Y-0.228
G1 X-0.234Y-0.272
G1 X-0.177Y-0.307
G1 X-0.117Y-0.331
G1 X-0.057Y-0.344
G1 X0.004Y-0.348
G1 X0.067Y-0.342
G1 X0.131Y-0.325
G1 X0.195Y-0.298
G1 X0.262Y-0.261
G1 X0.329Y-0.214
G1 X0.397Y-0.156
G1 X0.224Y-0.053
G1 X0.242Y-0.035
G1 X0.26Y-0.016
G1 X0.278Y0.005
G1 X0.313Y0.038
G1 X0.296Y0.075
G1 X0.277Y0.109
G1 X0.253Y0.139
G1 X0.229Y0.167
G1 X0.202Y0.192
G1 X0.171Y0.212
G1 X0.139Y0.23
G1 X0.104Y0.245
G1 X0.067Y0.256
G1 X0.026Y0.263
G1 X-0.016Y0.269
G1 X-0.06Y0.269
G1 X-0.109Y0.268
G1 X-0.158Y0.263
G1 X-0.21Y0.254
G1 X-0.241Y0.215
G1 X-0.257Y0.165
G1 X-0.273Y0.118
G1 X-0.285Y0.077
G1 X-0.297Y0.039
G1 X-0.306Y0.007
G1 X-0.312Y-0.021
G1 X-0.318Y-0.044
G1 Y0.003
G0 X22.36Y-7.07
G1 X0.066Y0.091
G1 X0.053Y0.119
G1 X0.039Y0.143
G1 X0.026Y0.163
G1 X0.01Y0.365
G1 X-0.044Y0.388
G1 X-0.097Y0.376
G1 X-0.152Y0.328
G1 X-0.097Y0.135
G1 X-0.11Y0.109
G1 X-0.123Y0.079
G1 X-0.137Y0.045
G1 X-0.486Y0.065
G1 X-0.462Y0.014
G1 X-0.438Y-0.035
G1 X-0.413Y-0.081
G1 X-0.389Y-0.125
G1 X-0.365Y-0.164
G1 X-0.34Y-0.202
G1 X-0.315Y-0.236
G1 X-0.289Y-0.268
G1 X-0.265Y-0.297
G1 X-0.239Y-0.324
G1 X-0.213Y-0.346
G1 X-0.187Y-0.368
G1 X-0.161Y-0.385
G1 X-0.135Y-0.4
G1 X-0.109Y-0.413
G1 X-0.082Y-0.421
G1 X-0.055Y-0.429
G1 X-0.028Y-0.432
G1 Y-0.433
G1 X0.025Y-0.431
G1 X0.054Y-0.427
G1 X0.081Y-0.419
G1 X0.11Y-0.409
G1 X0.137Y-0.396
G1 X0.166Y-0.38
G1 X0.194Y-0.361
G1 X0.223Y-0.34
G1 X0.252Y-0.316
G1 X0.28Y-0.289
G1 X0.31Y-0.258
G1 X0.34Y-0.227
G1 X0.446Y-0.22
G1 X0.505Y-0.169
G1 X0.535Y-0.103
G1 X0.535Y-0.019
G1 X0.258Y0.027
G1 X0.248Y0.054
G1 X0.232Y0.082
G1 X0.215Y0.114
G1 X0.192Y0.148
G1 X0.167Y0.182
G1 X0.137Y0.22
G1 X0.104Y0.259
G1 X0.073Y0.27
G1 X0.039Y0.23
G1 X0.008Y0.195
G1 X-0.019Y0.164
G1 X-0.111Y0.255
G1 X-0.185Y0.19
G1 X-0.238Y0.163
G1 X-0.265Y0.175
G1 X-0.268Y0.225
G1 X-0.248Y0.313
G1 X-0.109Y0.199
G1 X-0.095Y0.226
G1 X-0.08Y0.249
G1 X-0.066Y0.266
G1 X-0.083Y0.571
G1 X-0.017Y0.595
G1 X0.055Y0.586
G1 X0.132Y0.543
G1 X0.096Y0.246
G1 X0.118Y0.222
G1 X0.139Y0.196
G1 X0.161Y0.165
G1 X0.191Y0.118
G1 X0.217Y0.088
G1 X0.202Y0.079
G1 X0.141Y0.088
G1 X0.003
G0 X5.36Y-5.146
G1 X-0.138Y0.172
G1 X-0.135Y0.26
G1 X-0.108Y0.282
G1 X-0.055Y0.236
G1 X-0.013Y0.121
G1 X-0.011Y0.15
G1 X-0.011Y0.176
G1 X-0.009Y0.2
G1 X-0.016Y0.466
G1 X-0.012Y0.54
G1 X-0.007Y0.598
G1 X-0.003Y0.641
G1 X0.003Y0.669
G1 X0.007Y0.68
G1 X0.013Y0.678
G1 X0.019Y0.658
G1 X0.024Y0.623
G1 X0.031Y0.573
G1 X0.037Y0.508
G1 X0.044Y0.427
G1 X0.024Y0.179
G1 X0.026Y0.152
G1 X0.028Y0.124
G1 X0.03Y0.094
G1 X0.194Y0.351
G1 X0.222Y0.328
G1 X0.09Y0.17
G1 X0.059Y0.182
G1 X0.015Y0.201
G1 X-0.041Y0.226
G1 X-0.083Y0.194
G1 X-0.116Y0.155
G1 X-0.146Y0.119
G1 X-0.171Y0.087
G1 X-0.193Y0.059
G1 X-0.212Y0.034
G1 X-0.225Y0.012
G1 X-0.236Y-0.005
G1 X-0.488Y-0.051
G1 X-0.484Y-0.079
G1 X-0.45Y-0.079
G1 X-0.384Y-0.052
G1 X-0.517Y-0.012
G1 X-0.482Y0.021
G1 X-0.433Y0.012
G1 X-0.367Y-0.038
G1 X-0.155Y-0.051
G1 X-0.132Y-0.08
G1 X-0.11Y-0.114
G1 X-0.083Y-0.154
G1 X-0.056Y-0.197
G1 X-0.027Y-0.248
G1 X0.004Y-0.302
G1 X0.038Y-0.363
G1 X0.072Y-0.281
G1 X0.12Y-0.222
G1 X0.148Y-0.173
G1 X0.162Y-0.13
G1 X0.157Y-0.097
G1 X0.136Y-0.071
G1 X0.098Y-0.053
G1 X0.043Y-0.045
G1 X0.042Y-1.082
G1 Y-1.105
G1 X-0.031Y-1.119
G1 X-0.042Y-1.126
G1 X-0.038Y-1.124
G1 X-0.02Y-1.114
G1 X0.015Y-1.096
G1 X0.064Y-1.068
G1 X0.039Y-0.291
G1 X0.064Y-0.269
G1 X0.085Y-0.249
G1 X0.107Y-0.229
G1 X0.126Y-0.208
G1 X0.143Y-0.188
G1 X0.159Y-0.168
G1 X0.174Y-0.148
G1 X0.382Y-0.238
G1 X0.42Y-0.161
G1 X0.443Y-0.084
G1 X0.454Y-0.01
G1 X0.452Y0.063
G1 X0.436Y0.136
G1 X0.407Y0.205
G1 X0.365Y0.276
G1 X0.31Y0.343
G1 X0.241Y0.409
G1 X0.091Y0.23
G1 X0.069Y0.245
G1 X0.045Y0.262
G1 X0.02Y0.277
G1 X-0.197Y0.005
G1 X-0.198Y0.019
G1 X-0.19Y0.05
G1 X-0.172Y0.098
G0 X5.551Y0.122
G1 X-0.112Y0.131
G1 X-0.068Y0.128
G1 X-0.03Y0.126
G1 X0.005Y0.124
G1 X0.09Y0.245
G1 X0.164Y0.243
G1 X0.199Y0.245
G1 X0.193Y0.249
G1 X0.146Y0.257
G1 X0.059Y0.268
G1 X-0.013Y0.243
G1 X-0.042Y0.201
G1 X-0.067Y0.162
G1 X-0.091Y0.127
G1 X-0.111Y0.094
G1 X-0.13Y0.064
G1 X-0.146Y0.039
G1 X-0.158Y0.014
G1 X-0.348Y-0.027
G1 X-0.369Y-0.083
G1 X-0.372Y-0.114
G1 X-0.354Y-0.119
G1 X-0.344Y-0.127
G1 X-0.35Y-0.152
G1 X-0.345Y-0.178
G1 X-0.332Y-0.202
G1 X-0.31Y-0.227
G1 X-0.279Y-0.252
G1 X-0.238Y-0.276
G1 X-0.189Y-0.301
G1 X-0.148Y-0.33
G1 X-0.101Y-0.32
G1 X-0.056Y-0.308
G1 X-0.014Y-0.295
G1 X0.025Y-0.282
G1 X0.061Y-0.268
G1 X0.095Y-0.254
G1 X0.125Y-0.238
G1 X0.152Y-0.221
G1 X0.178Y-0.204
G1 X0.199Y-0.186
G1 X0.218Y-0.168
G1 X0.482Y-0.276
G1 X0.524Y-0.191
G1 X0.542Y-0.101
G1 X0.539Y-0.004
G1 X0.261Y0.037
G1 X0.251Y0.063
G1 X0.238Y0.09
G1 X0.224Y0.119
G1 X0.205Y0.147
G1 X0.184Y0.178
G1 X0.16Y0.207
G1 X0.133Y0.24
G1 X0.104Y0.271
G1 X0.071Y0.304
G1 X0.036Y0.338
G1 Y0.372
G1 X-0.057Y0.094
G1 X-0.082Y0.067
G1 X-0.101Y0.046
G1 X-0.111Y0.032
G1 X-0.225Y0.054
G1 X-0.172Y0.085
G0 X-0.569Y3.548
G1 X-0.024Y0.307
G1 X0.026Y0.274
G1 X0.07Y0.241
G1 X0.106Y0.206
G1 X0.136Y0.171
G1 X0.161Y0.134
G1 X0.179Y0.097
G1 X0.189Y0.059
G1 X0.195Y0.019
G1 X0.193Y-0.021
G1 X0.185Y-0.062
G1 X0.171Y-0.105
G1 X0.15Y-0.148
G1 X0.124Y-0.192
G1 X0.089Y-0.238
G1 X0.05Y-0.284
G1 X-0.021Y-2.234
G1 X0.04Y-2.308
G1 X0.102Y-0.509
G1 X0.161Y-0.461
G1 X0.106Y-0.209
G1 X0.124Y-0.192
G1 X0.145Y-0.176
G1 X0.166Y-0.156
G1 X0.189Y-0.137
G1 X0.213Y-0.115
G1 X0.239Y-0.093
G1 X0.266Y-0.068
G1 X0.294Y-0.043
G1 X0.324Y-0.017
G1 X0.355Y0.012
G1 X0.388Y0.041
G1 X0.389Y0.093
G1 X0.354Y0.161
G1 X0.313Y0.221
G1 X0.27Y0.271
G1 X0.222Y0.314
G1 X0.171Y0.349
G1 X0.117Y0.374
G1 X0.058Y0.392
G1 X-0.038Y0.067
G1 X-0.078Y0.057
G1 X-0.107Y0.05
G1 X-0.394Y0.146
G1 X-0.214Y0.127
G1 X-0.156Y0.208
G1 X-0.104Y0.269
G1 X-0.062Y0.323
G1 X-0.028Y0.37
G1 X0.009Y0.848
G1 X0.036Y0.943
G1 X0.006Y0.488
G1 X-0.014Y0.489
G1 X-0.043Y0.483
G1 X-0.081Y0.47
G1 X-0.128Y0.447
G1 X-0.184Y0.419
G1 X-0.249Y0.382
G1 X-0.322Y0.338
G1 X-0.349Y0.251
G1 X-0.42Y0.215
G1 X-0.479Y0.179
G1 X-0.528Y0.141
G1 X-0.564Y0.102
G1 X-0.589Y0.062
G1 X-0.604Y0.02
G1 X-0.606Y-0.021
G1 X-0.597Y-0.064
G1 X-0.577Y-0.109
G1 X-0.546Y-0.154
G1 X-0.504Y-0.201
G1 X-0.449Y-0.248
G1 X-0.384Y-0.297
G1 X-0.164Y-0.167
G1 X-0.144Y-0.179
G1 X-0.121Y-0.193
G1 X-0.098Y-0.205
G1 X-0.118Y-0.357
G1 X-0.053Y-0.322
G1 X0.007Y-0.287
G1 X0.061Y-0.255
G1 X0.11Y-0.221
G1 X0.153Y-0.191
G1 X0.191Y-0.16
G1 X0.224Y-0.131
G1 X0.25Y-0.102
G1 X0.273Y-0.074
G1 X0.289Y-0.048
G1 X0.299Y-0.023
G1 X0.611Y0.028
G1 X0.592Y0.119
G0 X-16.944Y-6.064
G1 X0.143Y0.233
G1 X0.095Y0.221
G1 X0.053Y0.209
G1 X0.014Y0.2
G1 X-0.066Y0.378
G1 X-0.156Y0.358
G1 X-0.205Y0.352
G1 X-0.214Y0.358
G1 X-0.182Y0.376
G1 X-0.109Y0.408
G1 X-0.053Y0.644
G1 Y0.669
G1 X0.024Y0.685
G1 X0.028Y0.691
G1 X0.007Y0.689
G1 X-0.038Y0.677
G1 X-0.108Y0.657
G1 X-0.201Y0.627
G1 X-0.115Y0.239
G1 X-0.132Y0.217
G1 X-0.149Y0.196
G1 X-0.162Y0.174
G1 X-0.364Y0.286
G1 X-0.403Y0.205
G1 X-0.431Y0.127
G1 X-0.447Y0.052
G1 X-0.452Y-0.02
G1 X-0.443Y-0.089
G1 X-0.423Y-0.155
G1 X-0.39Y-0.219
G1 X-0.346Y-0.279
G1 X-0.29Y-0.336
G1 X-0.222Y-0.391
G1 X-0.141Y-0.442
G1 X-0.037Y-0.24
G1 X-0.012Y-0.251
G1 X0.014Y-0.263
G1 X0.042Y-0.274
G1 X0.083Y-0.067
G1 X0.122Y-0.038
G1 X0.149Y-0.019
G1 X0.332Y-0.021
G1 X0.161Y-0.023
G1 X0.143Y-0.043
G1 X0.113Y-0.075
G1 X0.091Y-0.123
G1 X0.073Y-0.17
G1 X0.058Y-0.211
G1 X0.043Y-0.244
G1 X0.048Y-0.566
G1 X0.005Y-0.626
G1 X-0.029Y-0.639
G1 X-0.053Y-0.6
G1 X-0.032Y-0.27
G1 X-0.034Y-0.241
G1 X-0.036Y-0.207
G1 X-0.036Y-0.167
G1 X-0.09Y-0.289
G1 X-0.124Y-0.34
G1 X-0.129Y-0.368
G1 X-0.105Y-0.376
G1 X-0.051Y-0.363
G1 X0.033Y-0.329
G1 X0.057Y-0.146
G1 X0.089Y-0.129
G1 X0.124Y-0.111
G1 X0.164Y-0.089
G1 X0.103Y-0.024
G1 X0.183Y-0.022
G1 X0.249Y-0.021
G1 X0.306Y-0.018
G1 X0.735Y-0.03
G1 X0.821Y-0.019
G1 X0.816Y-0.008
G1 X0.719Y0.006
G1 X0.293Y0.009
G1 X0.235Y0.013
G1 X0.165Y0.016
G1 X0.082Y0.022
G1 X-0.005Y-0.003
G0 X10.737Y51.628
G1 X0.681Y-0.198
G1 X0.648Y-0.144
G1 X0.616Y-0.092
G1 X0.584Y-0.039
G1 X0.555Y0.015
G1 X0.527Y0.069
G1 X0.501Y0.121
G1 X0.475Y0.176
G1 X0.451Y0.229
G1 X0.43Y0.283
G1 X0.408Y0.337
G1 X0.389Y0.391
G1 X0.371Y0.445
G1 X0.354Y0.499
G1 X0.339Y0.554
G1 X0.325Y0.608
G1 X0.56Y1.173
G1 X0.528Y1.202
G1 X0.506Y1.221
G1 X0.497Y1.23
G1 X0.5Y1.231
G1 X0.514Y1.221
G1 X0.541Y1.202
G1 X0.58Y1.172
G1 X0.424Y0.445
G1 X0.434Y0.359
G1 X0.177Y0.201
G1 X0.13Y0.243
G1 X0.041Y0.144
G1 X0.023Y0.162
G1 X0.003Y0.184
G1 X-0.021Y0.207
G1 X-0.045Y0.203
G1 X-0.069Y0.16
G1 X-0.093Y0.124
G1 X-0.114Y0.092
G1 X-0.291Y0.113
G1 X-0.367Y0.052
G1 X-0.386Y0.027
G1 X-0.471Y0.021
G1 X-0.526Y0.015
G1 X-0.553Y0.007
G1 X-0.552
G1 X-0.522Y-0.014
G1 X-0.463Y-0.022
G1 X-0.376Y-0.034
G1 X-0.216Y-0.067
G1 X-0.162Y-0.129
G1 X-0.114Y-0.18
G1 X-0.074Y-0.214
G1 X-0.05Y-0.479
G1 X0.036Y-0.45
G1 X0.126Y-0.36
G1 X0.19Y-0.308
G1 X0.088Y-0.148
G1 X0.069Y-0.151
G1 X0.036Y-0.158
G1 X-0.009Y-0.172
G1 X-4.146Y-9.347
G1 X-0.664Y-0.921
G1 X-0.114Y0.11
G1 X-0.061Y0.138
G1 X-0.023Y0.157
G1 Y0.165
G1 Y0.164
G1 X-0.009Y0.153
G1 X-0.038Y0.132
G1 X-0.083Y0.103
G1 X-0.174Y0.084
G1 X-0.269Y0.072
G1 X-0.333Y0.055
G1 X-0.366Y0.033
G1 X-0.368Y0.007
G1 X-0.341Y-0.024
G1 X-0.282Y-0.059
G1 X-0.193Y-0.099
G1 X-0.091Y-0.11
G1 X-0.079Y-0.152
G1 X-0.066Y-0.187
G1 X-0.056Y-0.219
G1 X-0.086Y-0.508
G1 X-0.064Y-0.566
G1 X-0.054Y-0.58
G1 X-0.056Y-0.55
G1 X-0.033Y-0.249
G1 X-0.038Y-0.226
G1 X-0.045Y-0.196
G1 X-0.054Y-0.162
G1 X0.003Y0.003
G0 X3.574Y6.604
G1 X0.424Y0.446
G1 X0.378Y0.519
G1 X0.329Y0.575
G1 X0.279Y0.616
G1 X0.226Y0.639
G1 X0.173Y0.647
G1 X0.115Y0.637
G1 X0.058Y0.612
G1 X-0.018Y0.545
G1 X-0.067Y0.541
G1 X-0.054Y0.523
G1 X0.017Y0.495
G1 X0.098Y0.297
G1 X0.158Y0.284
G1 X0.153Y0.267
G1 X0.086Y0.247
G1 X0.003Y0.161
G1 X-0.03Y0.171
G1 X-0.06Y0.172
G1 X-0.086Y0.165
G1 X-0.108Y0.149
G1 X-0.127Y0.126
G1 X-0.143Y0.093
G1 X-0.155Y0.053
G1 X-0.584Y0.07
G1 X-0.639Y0.017
G1 X-0.678Y-0.02
G1 X-0.698Y-0.039
G1 X-0.703Y-0.043
G1 X-0.69Y-0.028
G1 X-0.66
G1 X-0.614Y0.051
G1 X-0.168Y-0.242
G1 X-0.117Y-0.283
G1 X-0.065Y-0.308
G1 X-0.013Y-0.32
G1 X0.039Y-0.316
G1 X0.091Y-0.299
G1 X0.142Y-0.267
G1 X0.195Y-0.219
G1 X0.2Y-0.13
G1 X0.449Y-0.187
G1 X0.221Y-0.136
G1 X0.35Y-0.296
G1 X0.322Y-0.314
G1 X0.295Y-0.331
G1 X0.268Y-0.346
G1 X0.243Y-0.362
G1 X0.218Y-0.375
G1 X0.194Y-0.387
G1 X0.17Y-0.399
G1 X0.271Y-0.828
G1 X0.183Y-0.86
G1 X0.102Y-0.884
G1 X0.025Y-0.899
G0 X-14.222Y-1.982
G1 X5.49
G1 X0.096Y0.27
G1 X0.055Y0.256
G1 X0.019Y0.242
G1 X-0.011Y0.231
G1 X-0.099Y0.438
G1 X-0.169Y0.417
G1 X-0.206Y0.412
G1 X-0.205Y0.424
G1 X-0.171Y0.452
G1 X-0.1Y0.494
G1 X-0.049Y0.806
G1 Y0.841
G1 X0.029Y0.865
G1 X0.043Y0.875
G1 X0.04Y0.871
G1 X0.019Y0.857
G1 X-0.019Y0.827
G1 X-0.076Y0.786
G1 X-0.047Y0.19
G1 X-0.077Y0.152
G1 X-0.106Y0.12
G1 X-0.129Y0.088
G1 X-0.318Y0.1
G1 X-0.373Y0.019
G1 X-0.809Y-0.098
G1 X-0.71Y-0.1
G1 X-0.575
G1 X-0.567Y0.024
G1 X-0.528Y0.007
G1 X-0.461Y-0.055
G1 X-0.194Y-0.065
G1 X-0.167Y-0.097
G1 X-0.134Y-0.135
G1 X-0.098Y-0.178
G1 X-0.057Y-0.226
G1 X-0.015Y-0.281
G1 X0.034Y-0.34
G1 X0.084Y-0.406
G1 X0.081Y-0.205
G1 X0.117Y-0.163
G1 X0.141Y-0.127
G1 X0.153Y-0.101
G1 X0.15Y-0.081
G1 X0.137Y-0.071
G1 X0.111Y-0.068
G1 X0.071Y-0.073
G1 X0.021Y-0.075
G1 X0.018Y-0.148
G1 X0.015Y-0.212
G1 X0.012Y-0.265
G1 X0.017Y-0.648
G1 X0.008Y-0.743
G1 Y-0.757
G1 X-0.007Y-0.692
G1 X-0.007Y-0.297
G1 X-0.007Y-0.251
G1 X-0.01Y-0.195
G1 X-0.01Y-0.13
G1 X-0.098Y-0.441
G1 X-0.171Y-0.431
G1 X-0.21Y-0.421
G1 X-0.217Y-0.411
G1 X-0.191Y-0.401
G1 X-0.132Y-0.391
G1 X-0.034Y-0.192
G1 X-0.007Y-0.189
G1 X0.024Y-0.187
G1 X0.06Y-0.185
G1 X0.259Y-0.285
G1 X0.267Y-0.244
G1 Y-0.003
G0 X-1.272Y2.36
G1 X-0.341Y0.101
G1 X-0.327Y0.157
G1 X-0.146Y0.105
G1 X-0.126Y0.124
G1 X-0.102Y0.146
G1 X-0.072Y0.169
G1 X-0.08Y0.401
G1 X-0.036Y0.487
G1 Y0.546
G1 X0.016Y0.582
G1 X0.027Y0.59
G1 X0.024Y0.573
G1 X0.01Y0.531
G1 X-0.017Y0.463
G1 X-0.087Y0.614
G1 X-0.157Y0.552
G1 X-0.221Y0.492
G1 X-0.279Y0.434
G1 X-0.333Y0.378
G1 X-0.379Y0.325
G1 X-0.422Y0.273
G1 X-0.457Y0.224
G1 X-0.489Y0.177
G1 X-0.513Y0.132
G1 X-0.532Y0.089
G1 X-0.547Y0.049
G1 X-0.554Y0.01
G1 X-0.557Y-0.027
G1 X-0.555Y-0.06
G1 X-0.546Y-0.093
G1 X-0.59Y-0.155
G1 X-0.64Y-0.24
G1 X-0.636Y-0.322
G1 X-0.58Y-0.4
G1 X-0.252Y-0.228
G1 X-0.218Y-0.245
G1 X-0.177Y-0.263
G1 X-0.13Y-0.28
G1 X-0.076Y-0.296
G1 X-0.016Y-0.312
G1 X0.052Y-0.328
G1 X0.125Y-0.342
G1 X0.114Y-0.198
G1 X0.139Y-0.168
G1 X0.161Y-0.14
G1 X0.181Y-0.116
G1 X0.407Y-0.161
G1 X0.452Y-0.084
G1 X0.475Y-0.022
G1 X0.474Y0.024
G1 X0.453Y0.053
G1 X0.409Y0.066
G1 X0.068Y0.421
G1 X0.039Y0.452
G1 X0.043Y0.21
G1 X0.077Y0.184
G1 X0.123Y0.147
G1 X0.185Y0.1
G1 X0.253Y0.065
G1 X0.259Y0.033
G1 X0.256Y-0.004
G1 X0.24Y-0.047
G1 X0.214Y-0.094
G1 X0.177Y-0.145
G1 X0.13Y-0.203
G1 X0.072Y-0.264
G1 X0.034Y-0.397
G1 X0.009Y-0.446
G1 X-0.007Y-0.486
G1 X-0.02Y-0.518
G1 X-0.046Y-1.098
G1 X-0.014Y-1.124
G1 X0.021Y-0.551
G1 X0.048Y-0.532
G1 X0.082Y-0.504
G1 X0.122Y-0.469
G1 X0.168Y-0.425
G1 X0.222Y-0.372
G1 X0.28Y-0.311
G1 X0.347Y-0.242
G1 X0.351Y-0.161
G1 X0.365Y-0.117
G1 X0.372Y-0.074
G1 X0.375Y-0.031
G1 X0.373Y0.01
G1 X0.364Y0.05
G1 X0.352Y0.091
G1 X0.334Y0.129
G1 X0.311Y0.168
G1 X0.282Y0.205
G1 X0.249Y0.241
G1 X0.209Y0.277
G1 X0.166Y0.311
G1 X0.117Y0.346
G1 X0.063Y0.378
G1 X0.003Y0.41
G1 X0.003
G0 X-6.364Y0.254
G1 X-0.216Y0.069
G1 X-0.279Y0.063
G1 X-0.136Y0.059
G1 X-0.12Y0.095
G1 X-0.093Y0.142
G1 X-0.055Y0.202
G1 X-0.011Y0.157
G1 X0.013Y0.139
G1 X0.034Y0.122
G1 X0.051Y0.109
G1 X0.144Y0.186
G1 X0.176Y0.163
G1 X0.183Y0.16
G1 X0.167Y0.179
G1 X0.123Y0.219
G1 X0.056Y0.278
G1 X-0.01Y0.305
G1 X-0.056Y0.248
G1 X-0.098Y0.196
G1 X-0.136Y0.148
G1 X-0.167Y0.104
G1 X-0.195Y0.065
G1 X-0.217Y0.03
G1 X-0.235
G1 X-0.503Y-0.075
G1 X-0.516Y-0.144
G1 X-0.489Y-0.177
G1 X-0.426Y-0.176
G1 X-0.45Y-0.221
G1 X-0.436Y-0.272
G1 X-0.407Y-0.32
G1 X-0.364Y-0.365
G1 X-0.306Y-0.408
G1 X-0.234Y-0.447
G1 X-0.086Y-0.238
G1 X-0.062Y-0.246
G1 X-0.037Y-0.255
G1 X-0.009Y-0.263
G1 X0.019Y-0.286
G1 X0.049Y-0.271
G1 X0.076Y-0.256
G1 X0.101Y-0.241
G1 X0.123Y-0.225
G1 X0.146Y-0.209
G1 X0.164Y-0.193
G1 X0.183Y-0.177
G1 X0.409Y-0.305
G1 X0.457Y-0.238
G1 X0.489Y-0.169
G1 X0.506Y-0.101
G1 X0.508Y-0.029
G1 X0.495Y0.044
G1 X0.466Y0.117
G1 X0.423Y0.193
G1 X0.191Y0.125
G1 X0.174Y0.145
G1 X0.155Y0.164
G1 X0.136Y0.184
G1 X0.113Y0.204
G1 X0.088Y0.224
G1 X0.063Y0.244
G1 X0.035Y0.265
G1 X0.003Y0.225
G1 X-0.02Y0.296
G1 X-0.022Y0.146
G1 X-0.031Y0.13
G1 X-0.041Y0.101
G1 X-0.053Y0.062
G1 X-0.003
G0 X-11.744Y2.405
G1 Y-1.981
G1 X-0.512Y0.052
G1 X-0.494Y0.069
G1 X-0.478Y0.094
G1 X-0.461Y0.127
G1 X-0.446Y0.167
G1 X-0.43Y0.214
G1 X-0.415Y0.27
G1 X-0.4Y0.332
G1 X-0.427Y0.469
G1 X-0.364Y0.541
G1 X-0.302Y0.605
G1 X-0.241Y0.658
G1 X-0.181Y0.701
G1 X-0.122Y0.733
G1 X-0.066Y0.755
G1 X-0.009Y0.767
G1 X0.045Y0.768
G1 X0.098Y0.761
G1 X0.15Y0.741
G1 X0.2Y0.712
G1 X0.25Y0.672
G1 X0.298Y0.623
G1 X0.345Y0.564
G1 X0.39Y0.492
G1 X-0.495Y-0.108
G1 X-0.479Y-0.138
G1 X-0.463Y-0.167
G1 X-0.447Y-0.194
G1 X-0.43Y-0.22
G1 X-0.411Y-0.245
G1 X-0.394Y-0.268
G1 X-0.374Y-0.29
G1 X-0.355Y-0.311
G1 X-0.334Y-0.33
G1 X-0.313Y-0.349
G1 X-0.292Y-0.366
G1 X-0.269Y-0.381
G1 X-0.246Y-0.396
G1 X-0.223Y-0.409
G1 X-0.198Y-0.42
G1 X-0.174Y-0.431
G1 X-0.148Y-0.441
G1 X-0.122Y-0.448
G1 X-0.095Y-0.455
G1 X-0.068Y-0.46
G1 X-0.039Y-0.465
G1 X-0.011Y-0.467
G1 X0.018Y-0.468
G1 X0.048Y-0.469
G1 X0.08Y-0.468
G1 X0.11Y-0.465
G1 X0.142Y-0.461
G1 X0.175Y-0.457
G1 X0.208Y-0.45
G1 X0.242Y-0.443
G1 X0.277Y-0.434
G1 X0.46Y-0.602
G1 X0.502Y-0.531
G1 X0.543Y-0.464
G1 X0.577Y-0.4
G1 X0.609Y-0.339
G1 X0.637Y-0.281
G1 X0.662Y-0.228
G1 X0.681Y-0.177
G1 X0.698Y-0.129
G1 X0.711Y-0.085
G1 X0.72Y-0.045
G1 X0.725Y-0.007
G1 X0.726Y0.026
G1 X0.724Y0.058
G1 X0.718Y0.084
G1 X0.707Y0.109
G1 X0.696Y0.139
G1 X0.689Y0.176
G1 X0.679Y0.213
G1 X0.664Y0.247
G1 X0.038Y1.025
G1 X-0.034Y1.07
G1 Y0.533
G1 X0.04Y0.521
G1 X0.093Y0.502
G1 X0.165Y0.474
G1 X0.207Y0.335
G1 X0.251Y0.315
G1 X0.118Y0.159
G1 X0.101Y0.164
G1 X0.075Y0.174
G1 X0.039Y0.187
G1 X0.004Y0.222
G1 X-0.03Y0.213
G1 X-0.062Y0.2
G1 X-0.095Y0.179
G1 X-0.127Y0.153
G1 X-0.16Y0.121
G1 X-0.193Y0.084
G1 X-0.226Y0.039
G1 X-0.416Y0.016
G1 X-0.446Y-0.004
G1 X-0.468Y-0.017
G1 X-1.448Y-0.075
G1 X-0.916Y-0.015
G1 X-0.553Y0.073
G1 X-0.562Y0.09
G1 X-0.261
G1 X-0.237Y-0.056
G1 X-0.106Y-0.056
G1 X-0.097Y-0.078
G1 X-0.086Y-0.103
G1 X-0.074Y-0.129
G1 X-0.085Y-0.224
G1 X-0.055Y-0.242
G1 X-0.023Y-0.254
G1 X0.011Y-0.255
G1 X0.046Y-0.25
G1 X0.083Y-0.235
G1 X0.121Y-0.213
G1 X0.161Y-0.182
G1 X0.225Y-0.139
G1 X0.233Y-0.071
G1 X0.103Y-0.019
G1 X0.144Y-0.021
G1 X0.028Y-0.009
G0 X0.924Y4.098
G1 X0.614Y-0.134
G1 X0.684Y-0.186
G1 X0.334Y-0.046
G1 X0.31Y0.022
G1 X0.143Y0.044
G1 X0.131Y0.072
G1 X0.119Y0.101
G1 X0.104Y0.135
G1 X0.046Y0.101
G1 X0.06Y0.173
G1 X0.072Y0.237
G1 X0.08Y0.289
G1 X0.179Y0.695
G1 X0.189Y0.785
G1 X0.181Y0.794
G1 X0.155Y0.722
G1 X0.062Y0.31
G1 X0.049Y0.261
G1 X0.033Y0.203
G1 X0.016Y0.134
G1 X-0.003Y0.175
G1 X-0.032Y0.145
G1 X-0.057Y0.117
G1 X-0.081Y0.092
G1 X-0.218Y0.122
G1 X-0.276Y0.056
G1 X-0.635Y0.005
G1 X-0.592Y0.011
G1 X-0.739Y0.135
G1 X-0.696Y0.144
G1 X-0.349Y0.059
G1 X-0.36Y0.04
G1 X-0.377Y0.016
G1 X-0.403Y-0.016
G1 X-0.322Y-0.04
G1 X-0.315Y-0.068
G1 X-0.306Y-0.093
G1 X-0.295Y-0.117
G1 X-0.281Y-0.142
G1 X-0.263Y-0.164
G1 X-0.243Y-0.186
G1 X-0.22Y-0.207
G1 X-0.194Y-0.226
G1 X-0.166Y-0.245
G1 X-0.135Y-0.263
G1 X-0.1Y-0.28
G1 X-0.064Y-0.296
G1 X-0.023Y-0.311
G1 X0.018Y-0.324
G1 X0.065Y-0.337
G1 X0.49Y0.195
G1 X0.502Y0.126
G1 X0.51Y0.067
G1 X0.517Y0.021
G1 X1.042Y-0.05
G1 X1.037Y-0.095
G1 Y-2.773
G1 X0.003Y-0.005
G0 X25.902Y2.35
G1 X-0.343Y-0.066
G1 X-0.307Y-0.123
G1 X-0.269Y-0.172
G1 X-0.231Y-0.216
G1 X-0.191Y-0.251
G1 X-0.152Y-0.281
G1 X-0.112Y-0.303
G1 X-0.071Y-0.318
G1 X-0.029Y-0.326
G1 X0.014Y-0.328
G1 X0.057Y-0.322
G1 X0.101Y-0.31
G1 X0.145Y-0.29
G1 X0.191Y-0.265
G1 X0.237Y-0.231
G1 X0.283Y-0.191
G1 X-0.164Y-1.529
G1 X0.398Y-0.204
G1 X0.377Y-0.144
G1 X0.354Y-0.086
G1 X0.331Y-0.033
G1 X0.309Y0.016
G1 X0.286Y0.062
G1 X0.262Y0.105
G1 X0.24Y0.144
G1 X0.216Y0.179
G1 X0.192Y0.21
G1 X0.168Y0.238
G1 X0.145Y0.262
G1 X0.12Y0.284
G1 X0.096Y0.3
G1 X0.071Y0.313
G1 X0.047Y0.324
G1 X0.021Y0.329
G1 X-0.003Y0.332
G1 X-0.029Y0.331
G1 X-0.054Y0.327
G1 X-0.08Y0.318
G1 X-0.106Y0.306
G1 X-0.132Y0.29
G1 X-0.158Y0.271
G1 X-0.184Y0.249
G1 X-0.211Y0.222
G1 X-0.238Y0.192
G1 X-0.265Y0.158
G1 X-0.292Y0.121
G1 X-0.319Y0.08
G1 X-0.346Y0.036
G1 X-0.375Y-0.013
G1 Y0.003
; Cut @ 600 mm/min, 80% power
M8
G0 X47.343Y-31.812
; Layer C00
G1 X-115
G1 Y58.58
G1 X115
G1 Y-58.58
G0 X-0.105Y-63
G1 X-115
G1 Y58.58
G1 X115
G1 Y-58.58
M9
G1 S0
M5
G90
; return to user-defined finish pos
G0 X0Y0
M2
